src/assets/icons/crossWhite.svg

<svg xmlns="http://www.w3.org/2000/svg" xmlns:xlink="http://www.w3.org/1999/xlink" viewBox="0,0,256,256" width="50px" height="50px"><g fill="#ffffff" fill-rule="nonzero" stroke="none" stroke-width="1" stroke-linecap="butt" stroke-linejoin="miter" stroke-miterlimit="10" stroke-dasharray="" stroke-dashoffset="0" font-family="none" font-weight="none" font-size="none" text-anchor="none" style="mix-blend-mode: normal"><g transform="scale(5.12,5.12)"><path d="M9.15625,6.3125l-2.84375,2.84375l15.84375,15.84375l-15.9375,15.96875l2.8125,2.8125l15.96875,-15.9375l15.9375,15.9375l2.84375,-2.84375l-15.9375,-15.9375l15.84375,-15.84375l-2.84375,-2.84375l-15.84375,15.84375z"></path></g></g></svg>

<svg xmlns="http://www.w3.org/2000/svg" viewBox="0 0 256 256" width="50" height="50"><path d="M9.156 6.313 6.312 9.155 22.157 25 6.22 40.969 9.03 43.78 25 27.844 40.938 43.78l2.843-2.843L27.844 25 43.687 9.156l-2.843-2.844L25 22.157z" transform="scale(5.12)" fill="#fff" stroke-miterlimit="10" font-family="none" font-weight="none" font-size="none" text-anchor="none" style="mix-blend-mode:normal"/></svg>
